packages/icons/svg/24/Down.svg

<svg width="24" height="24" viewBox="0 0 24 24" fill="none" xmlns="http://www.w3.org/2000/svg">
<path fill-rule="evenodd" clip-rule="evenodd" d="M16.125 12V5C16.125 4.44772 15.6773 4 15.125 4H9.125C8.57272 4 8.125 4.44772 8.125 5V12H4.53921C3.64831 12 3.20214 13.0771 3.83211 13.7071L12.125 22L20.3186 13.7026C20.9425 13.0709 20.495 12 19.6071 12H16.125Z" fill="#858585"/>
</svg>

<svg width="24" height="24" fill="none" xmlns="http://www.w3.org/2000/svg" viewBox="0 0 24 24"><path fill-rule="evenodd" clip-rule="evenodd" d="M16.125 12V5a1 1 0 00-1-1h-6a1 1 0 00-1 1v7H4.539c-.89 0-1.337 1.077-.707 1.707L12.125 22l8.194-8.297c.623-.632.176-1.703-.712-1.703h-3.482z" fill="currentColor"></path></svg>
